svgs/solid/arrow-up-from-bracket.svg

<svg xmlns="http://www.w3.org/2000/svg" viewBox="0 0 448 512"><!-- Font Awesome Pro 6.0.0-alpha2 by @fontawesome - https://fontawesome.com License - https://fontawesome.com/license (Commercial License) --><path d="M384 351.967V415.967C384 433.641 369.672 447.967 352 447.967H96C78.328 447.967 64 433.641 64 415.967V351.967C64 334.293 49.672 319.967 32 319.967S0 334.293 0 351.967V415.967C0 468.986 42.98 511.967 96 511.967H352C405.02 511.967 448 468.986 448 415.967V351.967C448 334.293 433.672 319.967 416 319.967S384 334.293 384 351.967ZM201.375 9.342L73.375 137.342C60.867 149.85 60.883 170.1 73.375 182.592C85.875 195.092 106.125 195.092 118.625 182.592L192 109.217V319.967C192 337.654 206.312 351.967 224 351.967S256 337.654 256 319.967V109.217L329.375 182.592C341.875 195.092 362.125 195.092 374.625 182.592S387.125 149.842 374.625 137.342L246.625 9.342C234.125 -3.158 213.875 -3.158 201.375 9.342Z"/></svg>

<svg xmlns="http://www.w3.org/2000/svg" viewBox="0 0 448 512"><!--! Font Awesome Pro 6.0.0-alpha3 by @fontawesome - https://fontawesome.com License - https://fontawesome.com/license (Commercial License) --><path d="M384 352v64c0 17.67-14.33 32-32 32H96c-17.67 0-32-14.33-32-32v-64c0-17.67-14.33-32-32-32s-32 14.33-32 32v64c0 53.02 42.98 96 96 96h256c53.02 0 96-42.98 96-96v-64c0-17.67-14.33-32-32-32S384 334.3 384 352zM201.4 9.375l-128 128c-12.51 12.51-12.49 32.76 0 45.25c12.5 12.5 32.75 12.5 45.25 0L192 109.3V320c0 17.69 14.31 32 32 32s32-14.31 32-32V109.3l73.38 73.38c12.5 12.5 32.75 12.5 45.25 0s12.5-32.75 0-45.25l-128-128C234.1-3.125 213.9-3.125 201.4 9.375z"/></svg>
